icon-themes/elementary_svg/cmd/lc_duplicateslide.svg

<svg height="24" width="24" xmlns="http://www.w3.org/2000/svg" xmlns:xlink="http://www.w3.org/1999/xlink"><radialGradient id="a" cx="24.837" cy="36.421" gradientTransform="matrix(-.25568 0 0 -.19176 17.353 22.984)" gradientUnits="userSpaceOnUse" r="15.645"><stop offset="0"/><stop offset="1" stop-opacity="0"/></radialGradient><linearGradient id="b" gradientTransform="matrix(.27962 0 0 -.26116 5.022 18.693)" gradientUnits="userSpaceOnUse" x1="25.469" x2="25.469" y1="32.841" y2="2.724"><stop offset="0" stop-color="#90dbec"/><stop offset=".25" stop-color="#55c1ec"/><stop offset=".625" stop-color="#3689e6"/><stop offset="1" stop-color="#2b63a0"/></linearGradient><linearGradient id="c" gradientTransform="matrix(.27962 0 0 -.26116 5.022 18.693)" gradientUnits="userSpaceOnUse" x1="36.246" x2="36.246" y1="2.929" y2="42.788"><stop offset="0" stop-color="#185f9a"/><stop offset="1" stop-color="#599ec9"/></linearGradient><linearGradient id="d" gradientTransform="matrix(0 .30606 .3277 0 5.52 4.564)" gradientUnits="userSpaceOnUse" x1="20.797" x2="37.474" y1="20.649" y2="20.649"><stop offset="0" stop-color="#fff"/><stop offset=".512" stop-color="#fff" stop-opacity=".235"/><stop offset=".585" stop-color="#fff" stop-opacity=".157"/><stop offset="1" stop-color="#fff" stop-opacity=".392"/></linearGradient><linearGradient id="e" gradientTransform="matrix(.3143 0 0 .32593 .457 -.322)" gradientUnits="userSpaceOnUse" x1="-1.454" x2="43.091" y1="10.193" y2="10.193"><stop offset="0" stop-color="#f4f4f4"/><stop offset="1" stop-color="#dbdbdb"/></linearGradient><linearGradient id="f" gradientTransform="matrix(.2538 0 0 .30502 19.13 -.685)" gradientUnits="userSpaceOnUse" x1="-20.21" x2="-75.375" y1="31.754" y2="31.754"><stop offset="0" stop-color="#a0a0a0"/><stop offset="1" stop-color="#bebebe"/></linearGradient><linearGradient id="g" gradientTransform="matrix(.24324 0 0 .35135 2.162 -.432)" gradientUnits="userSpaceOnUse" x1="3.444" x2="44.555" y1="26.846" y2="26.846"><stop offset="0" stop-color="#fff"/><stop offset=".1" stop-color="#fff" stop-opacity=".235"/><stop offset=".8" stop-color="#fff" stop-opacity=".157"/><stop offset="1" stop-color="#fff" stop-opacity=".392"/></linearGradient><linearGradient id="h" gradientUnits="userSpaceOnUse" x1="1.80304" x2="1.80304" xlink:href="#i" y1="7.968056" y2="22.378286"/><linearGradient id="i"><stop offset="0" stop-color="#ffa154"/><stop offset="1" stop-color="#f37329"/></linearGradient><linearGradient id="j" gradientUnits="userSpaceOnUse" x1="4" x2="4" xlink:href="#i" y1="4.559" y2="21.517"/><path d="m2.5.5h11v15h-11z" fill="url(#e)" stroke="url(#f)" stroke-linejoin="round" transform="matrix(0 1 -1 0 17 0)"/><path d="m12.5 14.5h-9v-13h9z" fill="none" stroke="url(#g)" stroke-linecap="round" transform="matrix(0 1 -1 0 17 0)"/><path d="m2 10.5c-.277 0-.5.223-.5.5v10c0 .277.223.5.5.5h3v-11z" fill="url(#j)" transform="translate(0 -8)"/><path d="m6 5h2m-2 2h1m-1 2h2m-2 2h2m0-4h1m0 4h1" fill="none" stroke="#aaa"/><path d="m5 13.5h-3.5v-11h3.5" fill="none" opacity=".4" stroke="#cc3b02" stroke-linejoin="round"/><g fill="url(#h)"><path d="m15.4 15.99a3.4 3.4 0 1 1 -1.8-2.998l-1.6 2.998z" opacity=".5" transform="translate(0 -8)"/><path d="m15.4 16c0 1.474-1.073 2.883-2.493 3.276s-3.064-.264-3.822-1.528c-.005.005 2.915-1.748 2.915-1.748z" opacity=".5" transform="translate(0 -8)"/><path d="m15.4 15.99c0 1.474-1.073 2.883-2.493 3.276-.033-.006-.907-3.276-.907-3.276z" transform="translate(0 -8)"/></g><path d="m2.5.5h11v15h-11z" fill="url(#e)" stroke="url(#f)" stroke-linejoin="round" transform="matrix(0 1 -1 0 23 7)"/><path d="m12.5 14.5h-9v-13h9z" fill="none" stroke="url(#g)" stroke-linecap="round" transform="matrix(0 1 -1 0 23 7)"/><path d="m2 10.5c-.277 0-.5.223-.5.5v10c0 .277.223.5.5.5h3v-11z" fill="url(#j)" transform="translate(6 -1)"/><path d="m12 12h2m-2 2h1m-1 2h2m-2 2h2m0-4h1m0 4h1" fill="none" stroke="#aaa"/><path d="m11 20.5h-3.5v-11h3.5" fill="none" opacity=".4" stroke="#cc3b02" stroke-linejoin="round"/><g fill="url(#h)"><path d="m15.4 15.99a3.4 3.4 0 1 1 -1.8-2.998l-1.6 2.998z" opacity=".5" transform="translate(6 -1)"/><path d="m15.4 16c0 1.474-1.073 2.883-2.493 3.276s-3.064-.264-3.822-1.528c-.005.005 2.915-1.748 2.915-1.748z" opacity=".5" transform="translate(6 -1)"/><path d="m15.4 15.99c0 1.474-1.073 2.883-2.493 3.276-.033-.006-.907-3.276-.907-3.276z" transform="translate(6 -1)"/></g><path d="m7.003 16a4 3 0 1 1 8 0 4 3 0 0 1 -8 0z" fill="url(#a)" fill-rule="evenodd" opacity=".141" transform="translate(-2.036 1.926)"/><g stroke-miterlimit="7" stroke-width=".964"><path d="m9.303 8.59c-3.55 2.404-1.418 7.017 2.2 7.017v1.91l5-3.57-5-3.34v2c-2.553.1-3.668-2.34-1.844-4.018z" display="block" fill="url(#b)" stroke="url(#c)" stroke-linejoin="round" transform="translate(-2.036 1.926)"/><path d="m8.62 9.833c-1.252 1.47-.124 5.31 3.883 4.785v.99l2.33-1.662-2.33-1.51v.793c-4.397.233-4.256-2.803-3.882-3.398z" display="block" fill="none" opacity=".8" stroke="url(#d)" transform="translate(-2.036 1.926)"/></g></svg>

<svg xmlns="http://www.w3.org/2000/svg" xmlns:xlink="http://www.w3.org/1999/xlink" height="24" width="24"><defs><radialGradient id="s" gradientUnits="userSpaceOnUse" cy="36.421" cx="24.837" gradientTransform="matrix(-.25568 0 0 -.19176 17.353 22.984)" r="15.645"><stop offset="0"/><stop stop-opacity="0" offset="1"/></radialGradient><linearGradient id="u" y2="2.724" gradientUnits="userSpaceOnUse" x2="25.469" gradientTransform="matrix(.27962 0 0 -.26116 5.022 18.693)" y1="32.841" x1="25.469"><stop stop-color="#90dbec" offset="0"/><stop stop-color="#55c1ec" offset=".25"/><stop stop-color="#3689e6" offset=".625"/><stop stop-color="#2b63a0" offset="1"/></linearGradient><linearGradient id="t" y2="42.788" gradientUnits="userSpaceOnUse" x2="36.246" gradientTransform="matrix(.27962 0 0 -.26116 5.022 18.693)" y1="2.929" x1="36.246"><stop stop-color="#185f9a" offset="0"/><stop stop-color="#599ec9" offset="1"/></linearGradient><linearGradient id="v" y2="20.649" gradientUnits="userSpaceOnUse" x2="37.474" gradientTransform="matrix(0 .30606 .3277 0 5.52 4.564)" y1="20.649" x1="20.797"><stop stop-color="#fff" offset="0"/><stop stop-color="#fff" stop-opacity=".235" offset=".512"/><stop stop-color="#fff" stop-opacity=".157" offset=".585"/><stop stop-color="#fff" stop-opacity=".392" offset="1"/></linearGradient><linearGradient id="l" y2="10.193" xlink:href="#a" gradientUnits="userSpaceOnUse" x2="43.091" gradientTransform="matrix(.3143 0 0 .32593 .457 -.322)" y1="10.193" x1="-1.454"/><linearGradient id="a"><stop stop-color="#f4f4f4" offset="0"/><stop stop-color="#dbdbdb" offset="1"/></linearGradient><linearGradient id="m" y2="31.754" xlink:href="#b" gradientUnits="userSpaceOnUse" x2="-75.375" gradientTransform="matrix(.2538 0 0 .30502 19.13 -.685)" y1="31.754" x1="-20.21"/><linearGradient id="b"><stop stop-color="#a0a0a0" offset="0"/><stop stop-color="#bebebe" offset="1"/></linearGradient><linearGradient id="n" y2="26.846" xlink:href="#c" gradientUnits="userSpaceOnUse" x2="44.555" gradientTransform="matrix(.24324 0 0 .35135 2.162 -.432)" y1="26.846" x1="3.444"/><linearGradient id="c"><stop stop-color="#fff" offset="0"/><stop stop-color="#fff" stop-opacity=".235" offset=".1"/><stop stop-color="#fff" stop-opacity=".157" offset=".8"/><stop stop-color="#fff" stop-opacity=".392" offset="1"/></linearGradient><linearGradient gradientUnits="userSpaceOnUse" y2="21.517" x2="4" y1="4.559" x1="4" id="r" xlink:href="#d" gradientTransform="matrix(.84976 0 0 .84976 -1.596 4.094)"/><linearGradient id="d"><stop offset="0" stop-color="#ffa154"/><stop offset="1" stop-color="#f37329"/></linearGradient><linearGradient xlink:href="#d" id="o" gradientUnits="userSpaceOnUse" x1="4" y1="4.559" x2="4" y2="21.517"/><linearGradient xlink:href="#d" id="p" gradientUnits="userSpaceOnUse" x1="4" y1="4.559" x2="4" y2="21.517" gradientTransform="matrix(.84976 0 0 .84976 -1.596 4.094)"/><linearGradient xlink:href="#d" id="q" gradientUnits="userSpaceOnUse" x1="4" y1="4.559" x2="4" y2="21.517" gradientTransform="matrix(.84976 0 0 .84976 -1.596 4.094)"/><linearGradient xlink:href="#a" id="e" gradientUnits="userSpaceOnUse" gradientTransform="matrix(.3143 0 0 .32593 .457 -.322)" x1="-1.454" y1="10.193" x2="43.091" y2="10.193"/><linearGradient xlink:href="#b" id="f" gradientUnits="userSpaceOnUse" gradientTransform="matrix(.2538 0 0 .30502 19.13 -.685)" x1="-20.21" y1="31.754" x2="-75.375" y2="31.754"/><linearGradient xlink:href="#c" id="g" gradientUnits="userSpaceOnUse" gradientTransform="matrix(.24324 0 0 .35135 2.162 -.432)" x1="3.444" y1="26.846" x2="44.555" y2="26.846"/><linearGradient xlink:href="#d" id="h" gradientUnits="userSpaceOnUse" x1="4" y1="4.559" x2="4" y2="21.517"/><linearGradient xlink:href="#d" id="i" gradientUnits="userSpaceOnUse" gradientTransform="matrix(.84976 0 0 .84976 -1.596 4.094)" x1="4" y1="4.559" x2="4" y2="21.517"/><linearGradient xlink:href="#d" id="j" gradientUnits="userSpaceOnUse" gradientTransform="matrix(.84976 0 0 .84976 -1.596 4.094)" x1="4" y1="4.559" x2="4" y2="21.517"/><linearGradient xlink:href="#d" id="k" gradientUnits="userSpaceOnUse" gradientTransform="matrix(.84976 0 0 .84976 -1.596 4.094)" x1="4" y1="4.559" x2="4" y2="21.517"/></defs><path d="M2.5.5h11v15h-11z" transform="rotate(90 8.5 8.5)" fill="url(#e)" stroke="url(#f)" stroke-linejoin="round"/><path d="M12.5 14.5h-9v-13h9z" transform="rotate(90 8.5 8.5)" fill="none" stroke="url(#g)" stroke-linecap="round"/><path d="M2 10.5c-.277 0-.5.223-.5.5v10c0 .277.223.5.5.5h3v-11z" color="#000" overflow="visible" fill="url(#h)" transform="translate(0 -8)"/><path d="M6 5h2M6 7h1M6 9h2M6 11h2M8 7h1M9 11h1" fill="none" stroke="#aaa"/><path d="M5 13.5H1.5v-11H5" color="#000" overflow="visible" opacity=".4" fill="none" stroke="#cc3b02" stroke-linejoin="round"/><path style="isolation:auto;mix-blend-mode:normal" d="M15.4 15.99a3.4 3.4 0 1 1-1.8-2.998L12 15.99z" color="#000" overflow="visible" opacity=".5" solid-color="#000000" fill="url(#i)" transform="translate(0 -8)"/><path d="M15.4 16c0 1.474-1.073 2.883-2.493 3.276-1.42.393-3.064-.264-3.822-1.528C9.08 17.753 12 16 12 16z" style="isolation:auto;mix-blend-mode:normal" color="#000" overflow="visible" opacity=".5" solid-color="#000000" fill="url(#j)" transform="translate(0 -8)"/><path d="M15.4 15.99c0 1.474-1.073 2.883-2.493 3.276C12.874 19.26 12 15.99 12 15.99z" style="isolation:auto;mix-blend-mode:normal" color="#000" overflow="visible" solid-color="#000000" fill="url(#k)" transform="translate(0 -8)"/><g><path transform="rotate(90 8 15)" fill="url(#l)" stroke="url(#m)" stroke-linejoin="round" d="M2.5.5h11v15h-11V.5z"/><path transform="rotate(90 8 15)" fill="none" stroke="url(#n)" stroke-linecap="round" d="M12.5 14.5h-9v-13h9z"/><path d="M2 10.5c-.277 0-.5.223-.5.5v10c0 .277.223.5.5.5h3v-11z" color="#000" overflow="visible" fill="url(#o)" transform="translate(6 -1)"/><path d="M12 12h2M12 14h1M12 16h2M12 18h2M14 14h1M15 18h1" fill="none" stroke="#aaa"/><path d="M11 20.5H7.5v-11H11" color="#000" overflow="visible" opacity=".4" fill="none" stroke="#cc3b02" stroke-linejoin="round"/><path d="M15.4 15.99a3.4 3.4 0 1 1-1.8-2.998L12 15.99z" style="isolation:auto;mix-blend-mode:normal" color="#000" overflow="visible" opacity=".5" solid-color="#000000" fill="url(#p)" transform="translate(6 -1)"/><path style="isolation:auto;mix-blend-mode:normal" d="M15.4 16c0 1.474-1.073 2.883-2.493 3.276-1.42.393-3.064-.264-3.822-1.528C9.08 17.753 12 16 12 16z" color="#000" overflow="visible" opacity=".5" solid-color="#000000" fill="url(#q)" transform="translate(6 -1)"/><path style="isolation:auto;mix-blend-mode:normal" d="M15.4 15.99c0 1.474-1.073 2.883-2.493 3.276C12.874 19.26 12 15.99 12 15.99z" color="#000" overflow="visible" solid-color="#000000" fill="url(#r)" transform="translate(6 -1)"/></g><g><path opacity=".141" d="M7.003 16a4 3 0 1 1 8 0 4 3 0 0 1-8 0z" fill-rule="evenodd" fill="url(#s)" transform="translate(-2.036 1.926)"/><path stroke-linejoin="round" d="M9.303 8.59c-3.55 2.404-1.418 7.017 2.2 7.017v1.91l5-3.57-5-3.34v2c-2.553.1-3.668-2.34-1.844-4.018z" display="block" stroke="url(#t)" stroke-miterlimit="7" stroke-width=".964" fill="url(#u)" transform="translate(-2.036 1.926)"/><path opacity=".8" d="M8.62 9.833c-1.252 1.47-.124 5.31 3.883 4.785v.99l2.33-1.662-2.33-1.51v.793c-4.397.233-4.256-2.803-3.882-3.398z" display="block" stroke="url(#v)" stroke-miterlimit="7" stroke-width=".964" fill="none" transform="translate(-2.036 1.926)"/></g></svg>
